X:1190
T:Agnes ()
A:Wyresdale, Lancashire
B:E and J Winder, 1835-41
L:1/16
M:2/4
O:England
Z:Richard Robinson 
%%Dancenotes:Lead down the middle up again right and left at top
%%TUNEURL: http://www.leeds.ac.uk/music/Info/RRTuneBk/gettune/00001165.html
%%ID:00001165
K:F
c4  (=Bcd)c | f4 ef(gf)          | a4  (gfed) | (d4 c2) F2 | \
G2A2 B2=B2  | c2 !accent!f4 (ed) | d2c4 G2    | F4      z2 ::
fg | \
a2gf (ef)cA | (dc).B.G (dc).B.G | !accent!a2gf (ef).c.A | (dc).B.G (dc).B.G |
agfe dcBA   | GABc      defg    | a2gf          efge    | f3F       G4 |]
%%newpage
%page 98
